X:1
T:Title
%%score ( 1 2 ) ( 3 4 )
L:1/8
Q:1/4=130
M:4/4
K:F
V:1 treble nm="Choir Aahs, ChrchOrg"
V:2 treble 
V:3 bass nm="Choir Aahs, ChrchOrg-2"
V:4 bass 
V:1
 [FA]3 [FA] [Ec][EB][EG][EB] | [FA]6 C[FA] | [EG]6 C[CG] | [CF]8 | [FA]3 [FA] [Fc][FA][^Fd][FA] | %5
w: By~Isham~E.~Reynolds,~1920 * * * * *|||||
 [GB]6 [DA][DA] | [DG]6 [FA][FA] | [EG]8 | [Fc]3 [FA] [Fc]4 | [Fd]3 [FA] [Fd]4 | %10
w: |||||
 [Fd]3 [Fd] [Fc][CA][=B,G][B,F] | G8 | [CA]3 [CA] [Fc][FA][^Fd][FA] | [GB]2 [^Fc]2 [GB]2 D[DB] | %14
w: ||||
 [FA]6 C[CG] | [CF]8 |] %16
w: ||
V:2
 x8 | x8 | x8 | x8 | x8 | x8 | x8 | x8 | x8 | x8 | x8 | C2 =B,2 C4 | x8 | x8 | x8 | x8 |] %16
V:3
 [F,C]3 [F,C] [C,C][C,C][C,B,][C,D] | [F,C]6 [F,A,][F,C] | [C,C]6 [C,B,][C,B,] | [F,A,]8 | %4
 [F,C]3 [F,C] [F,A,]F,[D,A,][D,D] | [G,D]6 [G,C][G,C] | [G,=B,]6 [G,B,][G,B,] | C4 B,4 | %8
 [F,A,]3 [F,C] A,2- [E,A,]2 | [D,A,]3 [D,D] A,2- [C,A,]2 | [B,,B,]3 B, [A,C]F,[D,F,][D,F,] | %11
 [C,E,]2 [D,F,]2 [C,E,]4 | F,3 F, [F,A,]F,[D,A,][D,D] | [G,D]2 [A,D]2 [G,D]2 [G,B,][G,B,] | %14
 [C,C]6 [C,B,][C,B,] | [F,A,]8 |] %16
V:4
 x8 | x8 | x8 | x8 | x8 | x8 | x8 | C,8 | z4 F,2 z2 | z4 D,2 z2 | x8 | x8 | x8 | x8 | x8 | x8 |] %16

